X: 4282
T: The CUCKOO'S NEST
%R: reel
B: James Kerr "Merry Melodies" v.4 p.30 #282
Z: 2016 John Chambers <jc:trillian.mit.edu>
M: C|
L: 1/8
K: D
|:\
Addc defd | edcB A2(AB) |\
cBAB cded | cAGF G2(AG) |\
FDFA dfed | cAGF G2(AG) |\
F2(FD) CDEG | F2D2D2 :|
|: B2 |\
AFDF AFDF | AGFE D2(EF) |\
GECE GECE | GFED C2(DE) |\
FEFD dfed | cAGF G2(AG) |\
F2(FD) CDEG | F2D2D2 :|

%%sep 1 1 500
%%sep 1 1 500

